assets/icons/menu.svg

<svg width="20" height="20" viewBox="0 0 20 20" fill="none" xmlns="http://www.w3.org/2000/svg">
<path d="M3.33334 15C3.09723 15 2.89945 14.92 2.74 14.76C2.58056 14.6 2.50056 14.4022 2.5 14.1667C2.49945 13.9311 2.57945 13.7333 2.74 13.5733C2.90056 13.4133 3.09834 13.3333 3.33334 13.3333H16.6667C16.9028 13.3333 17.1008 13.4133 17.2608 13.5733C17.4208 13.7333 17.5006 13.9311 17.5 14.1667C17.4994 14.4022 17.4194 14.6003 17.26 14.7608C17.1006 14.9214 16.9028 15.0011 16.6667 15H3.33334ZM3.33334 10.8333C3.09723 10.8333 2.89945 10.7533 2.74 10.5933C2.58056 10.4333 2.50056 10.2356 2.5 10C2.49945 9.76444 2.57945 9.56667 2.74 9.40667C2.90056 9.24667 3.09834 9.16667 3.33334 9.16667H16.6667C16.9028 9.16667 17.1008 9.24667 17.2608 9.40667C17.4208 9.56667 17.5006 9.76444 17.5 10C17.4994 10.2356 17.4194 10.4336 17.26 10.5942C17.1006 10.7547 16.9028 10.8344 16.6667 10.8333H3.33334ZM3.33334 6.66667C3.09723 6.66667 2.89945 6.58667 2.74 6.42667C2.58056 6.26667 2.50056 6.06889 2.5 5.83333C2.49945 5.59778 2.57945 5.4 2.74 5.24C2.90056 5.08 3.09834 5 3.33334 5H16.6667C16.9028 5 17.1008 5.08 17.2608 5.24C17.4208 5.4 17.5006 5.59778 17.5 5.83333C17.4994 6.06889 17.4194 6.26694 17.26 6.4275C17.1006 6.58806 16.9028 6.66778 16.6667 6.66667H3.33334Z" fill="currentColor"/>
</svg>

<svg xmlns="http://www.w3.org/2000/svg" width="20" height="20" fill="none" viewBox="0 0 20 20"><path fill="currentColor" d="M3.333 15a.8.8 0 0 1-.593-.24.8.8 0 0 1-.24-.593q0-.354.24-.594t.593-.24h13.334q.354 0 .594.24t.239.594-.24.594a.8.8 0 0 1-.593.239zm0-4.167a.8.8 0 0 1-.593-.24A.8.8 0 0 1 2.5 10q0-.354.24-.593.24-.24.593-.24h13.334q.354 0 .594.24T17.5 10t-.24.594a.8.8 0 0 1-.593.24zm0-4.166a.8.8 0 0 1-.593-.24.8.8 0 0 1-.24-.594q0-.353.24-.593T3.333 5h13.334q.354 0 .594.24t.239.593-.24.595a.8.8 0 0 1-.593.239z"/></svg>
